svg/editor/asterisk_2_fill.svg

<?xml version="1.0" encoding="UTF-8"?>
<svg width="24px" height="24px" viewBox="0 0 24 24" version="1.1" xmlns="http://www.w3.org/2000/svg" xmlns:xlink="http://www.w3.org/1999/xlink">
    <title>asterisk_2_fill</title>
    <g id="Icon" stroke="none" stroke-width="1" fill="none" fill-rule="evenodd">
        <g id="Editor" transform="translate(-48.000000, -336.000000)" fill-rule="nonzero">
            <g id="asterisk_2_fill" transform="translate(48.000000, 336.000000)">
                <path d="M24,0 L24,24 L0,24 L0,0 L24,0 Z M12.5935,23.2578 L12.5819,23.2595 L12.5109,23.295 L12.4919,23.2987 L12.4767,23.295 L12.4057,23.2595 C12.3958,23.2564 12.387,23.259 12.3821,23.2649 L12.378,23.2758 L12.3609,23.7031 L12.3659,23.7235 L12.3769,23.7357 L12.4805,23.8097 L12.4953,23.8136 L12.5071,23.8097 L12.6107,23.7357 L12.6233,23.7197 L12.6267,23.7031 L12.6096,23.2758 C12.6076,23.2657 12.601,23.2593 12.5935,23.2578 Z M12.8584,23.1453 L12.8445,23.1473 L12.6598,23.2397 L12.6499,23.2499 L12.6472,23.2611 L12.6651,23.6906 L12.6699,23.7034 L12.6784,23.7105 L12.8793,23.8032 C12.8914,23.8069 12.9022,23.803 12.9078,23.7952 L12.9118,23.7812 L12.8777,23.1665 C12.8753,23.1546 12.8674,23.147 12.8584,23.1453 Z M12.143,23.1473 C12.1332,23.1424 12.1222,23.1453 12.1156,23.1526 L12.1099,23.1665 L12.0758,23.7812 C12.0751,23.7927 12.0828,23.8019 12.0926,23.8046 L12.1083,23.8032 L12.3092,23.7105 L12.3186,23.7024 L12.3225,23.6906 L12.3404,23.2611 L12.3372,23.2485 L12.3278,23.2397 L12.143,23.1473 Z" id="MingCute"></path>
                <path d="M11.9999,2.5 C12.8283,2.5 13.4999,3.17157 13.4999,4 L13.4999,9.93538 L19.1448,8.10125 C19.9327,7.84525 20.7789,8.27643 21.0349,9.06431 C21.2909,9.85219 20.8597,10.6984 20.0718,10.9544 L14.427,12.7885 L18.5035,18.3993 C18.9904,19.0695 18.8418,20.0076 18.1716,20.4945 C17.5014,20.9815 16.5634,20.8329 16.0764,20.1627 L12,14.552 L7.9234,20.1629 C7.43647,20.8331 6.49841,20.9817 5.8282,20.4948 C5.15799,20.0078 5.00941,19.0698 5.49635,18.3996 L9.57283,12.7888 L3.92799,10.9547 C3.14011,10.6987 2.70894,9.85243 2.96493,9.06455 C3.22093,8.27667 4.06716,7.84549 4.85504,8.10149 L10.4999,9.93562 L10.4999,4 C10.4999,3.17157 11.1715,2.5 11.9999,2.5 Z" id="路径" fill="#09244B"></path>
            </g>
        </g>
    </g>
</svg>

<svg xmlns="http://www.w3.org/2000/svg" width="24" height="24"><g fill="none" fill-rule="nonzero"><path d="M24 0v24H0V0h24ZM12.594 23.258l-.012.002-.071.035-.02.004-.014-.004-.071-.036c-.01-.003-.019 0-.024.006l-.004.01-.017.428.005.02.01.013.104.074.015.004.012-.004.104-.074.012-.016.004-.017-.017-.427c-.002-.01-.009-.017-.016-.018Zm.264-.113-.014.002-.184.093-.01.01-.003.011.018.43.005.012.008.008.201.092c.012.004.023 0 .029-.008l.004-.014-.034-.614c-.003-.012-.01-.02-.02-.022Zm-.715.002a.023.023 0 0 0-.027.006l-.006.014-.034.614c0 .012.007.02.017.024l.015-.002.201-.093.01-.008.003-.011.018-.43-.003-.012-.01-.01-.184-.092Z"/><path fill="#09244B" d="M12 2.5A1.5 1.5 0 0 1 13.5 4v5.935l5.645-1.834a1.5 1.5 0 1 1 .927 2.853l-5.645 1.835 4.076 5.61a1.5 1.5 0 0 1-2.427 1.764L12 14.552l-4.077 5.61A1.5 1.5 0 0 1 5.496 18.4l4.077-5.611-5.645-1.834A1.5 1.5 0 0 1 4.855 8.1L10.5 9.936V4A1.5 1.5 0 0 1 12 2.5Z"/></g></svg>
